Sources/FrostedUI/Resources/Icons.xcassets/timeSkipRight24.imageset/time-skip-right-24.svg

<svg width="24" height="24" viewBox="0 0 24 24" fill="none" xmlns="http://www.w3.org/2000/svg" data-fui-icon="true">
  <path
    d="M11.9141 2.25C5.97003 2.25011 2.25 6.78537 2.25 12C2.25 17.2146 5.97003 21.7499 11.9141 21.75C16.0978 21.75 19.4642 19.2507 20.8555 16.0488C21.0204 15.6691 20.8464 15.2277 20.4668 15.0625C20.0869 14.8974 19.6446 15.0713 19.4795 15.4512C18.3194 18.1211 15.4832 20.25 11.9141 20.25C6.88694 20.2499 3.75 16.4775 3.75 12C3.75 7.52245 6.88694 3.75011 11.9141 3.75C16.4798 3.75 18.6926 6.8821 19.3252 9.3457H16C15.5859 9.3457 15.2502 9.6817 15.25 10.0957C15.25 10.5099 15.5858 10.8457 16 10.8457H19.9717C20.9606 10.8456 21.75 10.0385 21.75 9.05762V4C21.75 3.58579 21.4142 3.25 21 3.25C20.5858 3.25 20.25 3.58579 20.25 4V7.49219C19.0743 4.89995 16.4698 2.25 11.9141 2.25ZM11.75 6.25C11.3358 6.25 11 6.58579 11 7V12.5C11 12.71 11.0881 12.9088 11.2402 13.0498L11.3086 13.1064L14.0586 15.1064C14.3935 15.35 14.8628 15.2762 15.1064 14.9414C15.35 14.6065 15.2762 14.1372 14.9414 13.8936L12.5 12.1182V7C12.5 6.58579 12.1642 6.25 11.75 6.25Z"
    fill="currentColor"
  />
</svg>

<svg xmlns="http://www.w3.org/2000/svg" width="24" height="24" fill="none" data-fui-icon="true" viewBox="0 0 24 24"><path fill="currentColor" d="M11.914 2.25C5.97 2.25 2.25 6.785 2.25 12s3.72 9.75 9.664 9.75c4.184 0 7.55-2.5 8.942-5.701a.75.75 0 0 0-1.376-.598c-1.16 2.67-3.997 4.799-7.566 4.799-5.027 0-8.164-3.773-8.164-8.25s3.137-8.25 8.164-8.25c4.566 0 6.779 3.132 7.411 5.596H16a.75.75 0 0 0 0 1.5h3.972c.989 0 1.778-.807 1.778-1.788V4a.75.75 0 0 0-1.5 0v3.492C19.074 4.9 16.47 2.25 11.914 2.25m-.164 4A.75.75 0 0 0 11 7v5.5c0 .21.088.409.24.55l.069.056 2.75 2a.75.75 0 0 0 .882-1.212L12.5 12.118V7a.75.75 0 0 0-.75-.75"/></svg>
